X: 55
T: JIG: My Darling Asleep
C: C: Trad.; S: Various
C: Set Leaders: André, Sophie, Anton
Z: Anton Zille ed.; Umo at The Session
N: https://thesession.org/members/26966/sets/96712
R: Jig
M: 6/8
L: 1/8
Q: 3/8=116
K: Dmaj
|:fdd cAA|BGG A2G|FAA def|gfg eag|
fdd cAA|BGG A2G|FAA def|1 gec d2e:|2 gec d2A||
|:FAA BAG|FAA BAG|FAA def|gfg eag|
fdd cAA|BGG A2G|FAA def|1 gec d2A:|2 gec d2e||

